X: 24800
T: Maggie In The Woods
R: polka
M: 2/4
K: Gmajor
|:Gd G>A|Be- e/f/g/e/|dB AG/A/|BA- AB/A/|
Gd G>A|Be- e/f/g/e/|dB AB|G3 z:|
|:gf ed|e<f g>e|dB AG/A/|BA- AB/d/|
gg/f/ ed|ef gg/e/|dB AB|GG G2:|

